src/scalable/apps/regedit.svg

<?xml version="1.0" encoding="UTF-8" standalone="no"?>
<svg
   width="64"
   height="64"
   viewBox="0 0 16.933 16.933"
   version="1.1"
   id="svg18"
   sodipodi:docname="regedit.svg"
   inkscape:version="1.1.2 (0a00cf5339, 2022-02-04)"
   xmlns:inkscape="http://www.inkscape.org/namespaces/inkscape"
   xmlns:sodipodi="http://sodipodi.sourceforge.net/DTD/sodipodi-0.dtd"
   xmlns="http://www.w3.org/2000/svg"
   xmlns:svg="http://www.w3.org/2000/svg">
  <defs
     id="defs22" />
  <sodipodi:namedview
     id="namedview20"
     pagecolor="#505050"
     bordercolor="#ffffff"
     borderopacity="1"
     inkscape:pageshadow="0"
     inkscape:pageopacity="0"
     inkscape:pagecheckerboard="1"
     showgrid="false"
     inkscape:zoom="11.1875"
     inkscape:cx="25.832402"
     inkscape:cy="32.268156"
     inkscape:window-width="1920"
     inkscape:window-height="1000"
     inkscape:window-x="0"
     inkscape:window-y="44"
     inkscape:window-maximized="1"
     inkscape:current-layer="svg18" />
  <circle
     cx="8.466"
     cy="8.466"
     r="7.144"
     fill="#2196f3"
     style="paint-order:stroke fill markers"
     id="circle2" />
  <path
     d="M 3.6096394,3.9686719 A 6.6223903,6.6223903 0 0 0 3.1672648,4.4978281 H 6.3501396 V 3.9686719 H 3.6093748 Z M 2.5214296,5.5561406 C 2.4372937,5.7281164 2.3610952,5.9051192 2.2920404,6.0852969 H 3.7040938 V 5.5561406 Z m 2.2409767,0 V 6.0852969 H 11.112281 V 5.5561406 Z M 2.1145084,6.6144531 C 2.0642386,6.7880163 2.0189957,6.9642254 1.9827485,7.1436093 H 3.7040938 V 6.6144531 Z m 2.6478979,0 V 7.1436093 H 14.287219 V 6.6144531 Z M 1.9002002,7.6727656 a 6.7112886,6.7112886 0 0 0 -0.041803,0.529156 h 1.8459612 v -0.529156 z m 2.8622061,0 v 0.529156 h 8.4664997 v -0.529156 z m -2.9042741,1.058312 c 0.00714,0.178326 0.021166,0.354535 0.042068,0.529157 h 1.8038936 v -0.529157 z m 2.9042741,0 v 0.529157 h 5.2915627 v -0.529157 z m -2.7796578,1.058313 c 0.036247,0.179384 0.08149,0.3553284 0.1317599,0.5291564 H 3.7040938 V 9.7893906 Z m 2.7796578,0 V 10.318547 H 12.170594 V 9.7893906 Z M 2.2920404,10.847703 c 0.069055,0.180178 0.1452533,0.357181 0.2293892,0.529157 h 1.1826642 v -0.529157 h -1.412318 z m 2.4703659,0 v 0.529157 h 6.3498747 v -0.529157 z m -1.9525866,1.058313 c 0.1105937,0.182559 0.230183,0.359032 0.3574451,0.529156 h 0.5370936 v -0.529156 z m 1.9525866,0 v 0.529156 h 7.4081877 v -0.529156 z m -1.1522378,1.058312 c 0.030956,0.03334 0.062441,0.06614 0.093925,0.09869 v -0.09869 z m 1.1522378,0 v 0.529157 h 6.3498747 v -0.529157 z"
     fill="#ffffff"
     opacity="0.5"
     style="stroke-width:0.264578;paint-order:stroke markers fill"
     id="path8" />
  <g
     transform="translate(.982 -279.17)"
     paint-order="stroke markers fill"
     id="g16">
    <circle
       cx="11.718"
       cy="291.87"
       r="3.175"
       fill="#f55"
       id="circle6" />
    <circle
       cx="11.718"
       cy="291.87"
       r="1.588"
       opacity=".15"
       id="circle8" />
    <g
       fill="#fff"
       id="g14">
      <path
         d="M11.718 290.522a1.343 1.343 0 0 0-1.343 1.344 1.343 1.343 0 0 0 1.343 1.343 1.343 1.343 0 0 0 1.343-1.343 1.343 1.343 0 0 0-1.343-1.344zm0 .61a.733.733 0 0 1 .733.734.733.733 0 0 1-.733.732.733.733 0 0 1-.733-.732.733.733 0 0 1 .733-.733z"
         id="path10" />
      <path
         d="M11.474 289.973h.488v.854h-.488zm0 2.93h.488v.855h-.488zm2.137-1.282v.489h-.855v-.489zm-2.931 0v.489h-.855v-.489zm2.55 1.41-.346.346-.604-.605.345-.345zm-2.073-2.072-.345.345-.605-.604.345-.345zm-.605 2.418-.345-.346.605-.604.345.345zm2.073-2.073-.345-.345.604-.604.345.345z"
         id="path12" />
    </g>
  </g>
</svg>

<svg width="64" height="64" viewBox="0 0 16.933 16.933" xmlns="http://www.w3.org/2000/svg"><circle cx="8.466" cy="8.466" r="7.144" fill="#2196f3" style="paint-order:stroke fill markers"/><path d="M3.61 3.969a6.622 6.622 0 0 0-.443.529H6.35v-.53H3.61ZM2.52 5.556c-.084.172-.16.35-.229.53h1.412v-.53Zm2.241 0v.53h6.35v-.53ZM2.115 6.614c-.05.174-.096.35-.132.53h1.721v-.53Zm2.647 0v.53h9.525v-.53ZM1.9 7.673a6.711 6.711 0 0 0-.042.529h1.846v-.53zm2.862 0v.529h8.467v-.53zM1.858 8.73c.007.178.021.355.042.53h1.804v-.53zm2.904 0v.53h5.292v-.53zM1.982 9.79c.037.18.082.356.133.53h1.59v-.53Zm2.78 0v.53h7.409v-.53Zm-2.47 1.059c.07.18.145.357.23.529h1.182v-.53H2.292zm2.47 0v.529h6.35v-.53zM2.81 11.906c.11.183.23.359.357.53h.537v-.53zm1.952 0v.53h7.409v-.53zM3.61 12.964l.094.099v-.099zm1.152 0v.53h6.35v-.53z" fill="#fff" opacity=".5" style="stroke-width:.264578;paint-order:stroke markers fill"/><g transform="translate(.982 -279.17)" paint-order="stroke markers fill"><circle cx="11.718" cy="291.87" r="3.175" fill="#f55"/><circle cx="11.718" cy="291.87" r="1.588" opacity=".15"/><g fill="#fff"><path d="M11.718 290.522a1.343 1.343 0 0 0-1.343 1.344 1.343 1.343 0 0 0 1.343 1.343 1.343 1.343 0 0 0 1.343-1.343 1.343 1.343 0 0 0-1.343-1.344zm0 .61a.733.733 0 0 1 .733.734.733.733 0 0 1-.733.732.733.733 0 0 1-.733-.732.733.733 0 0 1 .733-.733z"/><path d="M11.474 289.973h.488v.854h-.488zm0 2.93h.488v.855h-.488zm2.137-1.282v.489h-.855v-.489zm-2.931 0v.489h-.855v-.489zm2.55 1.41-.346.346-.604-.605.345-.345zm-2.073-2.072-.345.345-.605-.604.345-.345zm-.605 2.418-.345-.346.605-.604.345.345zm2.073-2.073-.345-.345.604-.604.345.345z"/></g></g></svg>
